X: 1
T: String Quartet in F\# Minor opus 50 no 4 mvt 3
C: Franz Joseph Haydn
%%abc-version 2.0
%%abcx-abcm2ps-target-version 5.9.1 (29 Sep 2008)
%%abc-creator hum2abc beta
%%abcx-conversion-date 2021/02/14 14:38:29
%%abc-copyright Copyright (c) 1994, 2000 Center for Computer Assisted Research in the Humanities
%%abc-edited-by Frances Bennion
%%abcx-initial-encoding-date 1997/04/15
%%gracespace 0 6 6
%%humdrum-veritas 519125538
%%humdrum-veritas-data 1917158800
%%linebreak <none>
%%barnumbers 0
L: 1/4
M: 3/4
N: Derived from op50n4-03.krn
Q: "Menuetto: Poco allegretto"
%%staves [1 2 3 4]
V: 1
V: 2
V: 3 clef=alto
V: 4 clef=bass
K: F#
[V:1]z2 c/^B//c// [I:setbarnb1] |
[V:2]z2 z |
[V:3]z2 z |
[V:4]z2 z |
[V:1]f c c |
[V:2]A,2 B, |
[V:3]F,2 G, |
[V:4]F,3- |
[V:1]c2 A/G//A// |
[V:2]C D =E |
[V:3]A, B, C |
[V:4]F,3- |
[V:1]B d G |
[V:2]D2 E |
[V:3]B,3 |
[V:4]F,3- |
[V:1]A c F/E//F// |
[V:2]F2 F/E//F// |
[V:3]A,2 F,/E,//F,// |
[V:4]F,2 F,,/E,,//F,,// |
[V:1]G B E |
[V:2]G B E |
[V:3]G, B, E, |
[V:4]G,, B,, E,, |
[V:1]F A D |
[V:2]F A D |
[V:3]F, A, ^B,, |
[V:4]F,, A,, ^B,,, |
[V:1]E G ^B, |
[V:2]E G ^B, |
[V:3]C, E, G, |
[V:4]C,, E,, G,, |
[V:1]C z c/^B//c// |
[V:2]C z2 |
[V:3]E, z2 |
[V:4]C, z2 |
[V:1]b g e |
[V:2]G3- |
[V:3]E3- |
[V:4]z2 C,/^B,,//C,// |
[V:1]c z c/^B//c// |
[V:2]G2 B |
[V:3]E2 G |
[V:4]B, G, E, |
[V:1]c' a f |
[V:2]A3- |
[V:3]F3- |
[V:4]C, z C,/^B,,//C,// |
[V:1]c z c'/^b//c'// |
[V:2]A3 |
[V:3]F3 |
[V:4]C A, F, |
[V:1]f' =d' =a |
[V:2][=A3-f3] |
[V:3][=A3=D3] |
[V:4]=D,3- |
[V:1]f =d =A |
[V:2][=Af] =d A |
[V:3]F =D =A, |
[V:4]D,2 =A,, |
[V:1]F =G ^G |
[V:2]F =G ^G |
[V:3]F, =G, ^G, |
[V:4]F,, =G,, ^G,, |
[V:1]=A ^A B |
[V:2]=A ^A B |
[V:3]=A, ^A, B, |
[V:4]=A,, ^A,, B,, |
[V:1]^B d f |
[V:2]^B d F |
[V:3]^B, D2- |
[V:4]^B,,3- |
[V:1]=a g ^B |
[V:2]=A G F |
[V:3]D E D |
[V:4]B,, C, G, |
[V:1]c c c |
[V:2]E E E |
[V:3]C E G |
[V:4]C, E, G, |
[V:1]c z c/^B//c// |
[V:2]E z2 |
[V:3]C z2 |
[V:4]C z2 |
[V:1]f c c |
[V:2]A,2 B, |
[V:3]F,2 G, |
[V:4]F,3- |
[V:1]c2 A/G//A// |
[V:2]C D =E |
[V:3]A, B, C |
[V:4]F,3- |
[V:1]B d G |
[V:2]D2 E |
[V:3]B,3 |
[V:4]F,3- |
[V:1]A c F/E//F// |
[V:2]F2 F/E//F// |
[V:3]A,2 F,/E,//F,// |
[V:4]F,2 F,,/E,,//F,,// |
[V:1]G B =D |
[V:2]G B =D |
[V:3]G, B, =D, |
[V:4]G,, B,, =D,, |
[V:1]C B F/E//F// |
[V:2]C B F/E//F// |
[V:3]C, B, F,/E,//F,// |
[V:4]C,, B,, F,,/E,,//F,,// |
[V:1]G B =D/C//D// |
[V:2]G B =D/C//D// |
[V:3]G, B, =D,/C,//D,// |
[V:4]G,, B,, =D,,/C,,//D,,// |
[V:1]C =A C |
[V:2]C =A C |
[V:3]C, =A, C, |
[V:4]C,, =A,, C,, |
[V:1]^B, =A B, |
[V:2]^B, =A B, |
[V:3]^B,, =A, B,, |
[V:4]^B,,, =A,, B,,, |
[V:1]C/F/ A/c/ f/a/ |
[V:2]C z2 |
[V:3]C, z2 |
[V:4]C,, z2 |
[V:1]c' a f |
[V:2]z3 |
[V:3]z3 |
[V:4]z3 |
[V:1]c A F/E//F// |
[V:2]A,3 |
[V:3]F,3 |
[V:4]C,3- |
[V:1]G B E |
[V:2]B,3 |
[V:3]E,2 G, |
[V:4]C,3 |
[V:1]F A c |
[V:2]A, z F |
[V:3]F, z A, |
[V:4]F,, z F,,/E,,//F,,// |
[V:1]c2 B/A//B// |
[V:2]F E E |
[V:3]B,2 G, |
[V:4]G,, C,, C,, |
[V:1]A/c/ f/a/ c'/c'/ |
[V:2]F2 F |
[V:3]A,2 A, |
[V:4]F,, z F,,/E,,//F,,// |
[V:1]c'2 e/d//e// |
[V:2]F E G |
[V:3]B,2 B,/A,//B,// |
[V:4]G,, C,, C,, |
[V:1]f z2 |
[V:2]F z F- |
[V:3]A, z F,/E,//F,// |
[V:4]F,, z2 |
[V:1]z3 |
[V:2]F E G |
[V:3]G, C, B,- |
[V:4]z3 |
[V:1]z2 c- |
[V:2]C F =A3//G// |
[V:3]B, =A, F,/E,//F,// |
[V:4]z3 |
[V:1]c B =d |
[V:2]F3 |
[V:3]=D3- |
[V:4]z3 |
[V:1]G =A =e- |
[V:2]=E2 c3//B// |
[V:3]D C z |
[V:4]z2 =A,,/G,,//A,,// |
[V:1]e d =d- |
[V:2]=A2 =a |
[V:3]z2 =A/G//A// |
[V:4]F,2 =F, |
[V:1]d c ^B |
[V:2]g =a a |
[V:3]B c F |
[V:4]=E, D, D, |
[V:1]c =e/c/ =d/B/ |
[V:2]=a c/=A/ B/G/ |
[V:3]=E2 B,/=D/ |
[V:4]=E,3 |
[V:1]=A z c/B//c// |
[V:2]=A z2 |
[V:3]C z2 |
[V:4]=A,, =A, z |
[V:1]=e =A =a- |
[V:2]z2 c |
[V:3]z2 D/C//D// |
[V:4]z3 |
[V:1]a g =e/d//e// |
[V:2]B2 z |
[V:3]=E =E, z |
[V:4]z3 |
[V:1]f B b- |
[V:2]z2 =d |
[V:3]z2 E/D//E// |
[V:4]z3 |
[V:1]b =a c'/b//c'// |
[V:2]c2 =a/g//a// |
[V:3]F F, z |
[V:4]z2 F |
[V:1]=d' b c'/b//c'// |
[V:2]b g =a/g//a// |
[V:3]z3 |
[V:4]B, =E/D//E// =A, |
[V:1]=a b a/g//a// |
[V:2]f g f/e//f// |
[V:3]z3 |
[V:4]=D/C//D// B, ^B, |
[V:1]g c' =a/g//a// |
[V:2]e2 f/e//f// |
[V:3]z3 |
[V:4]C2 ^B, |
[V:1]g c' =a/g//a// |
[V:2]e2 f/e//f// |
[V:3]z3 |
[V:4]C2 ^B, |
[V:1]g g g |
[V:2]e e e |
[V:3]z3 |
[V:4]C C C |
[V:1]g z2 |
[V:2]e z F/E//F// |
[V:3]z2 F,- |
[V:4]C z2 |
[V:1]z3 |
[V:2]G C B- |
[V:3]F, E, G, |
[V:4]z2 C,,/^B,,,//C,,// |
[V:1]z2 =A/G//A// |
[V:2]B =A F/E//F// |
[V:3]C, F, z |
[V:4]F,, z2 |
[V:1]B G =d- |
[V:2]G E B- |
[V:3]z3 |
[V:4]z2 B,,/A,,//B,,// |
[V:1]d c B- |
[V:2]B =A G- |
[V:3]z2 =D/C//D// |
[V:4]E,3 |
[V:1]B =A =G- |
[V:2]G F C/B,//C// |
[V:3]C2 =A,- |
[V:4]F,2 =E, |
[V:1]G F c |
[V:2]=D2 =G |
[V:3]A,3- |
[V:4]=D,2 =A,,/G,,//A,,// |
[V:1]=e =d c |
[V:2]=G F =E |
[V:3]A, >=D, =E,/F,/ |
[V:4]=D,3- |
[V:1]B3 |
[V:2]=D3 |
[V:3]=G,3 |
[V:4]D,3- |
[V:1]^B3 |
[V:2]=A3- |
[V:3]F,3- |
[V:4]D,3 |
[V:1]c d2 |
[V:2]A =A2 |
[V:3]F, F,2 |
[V:4]C, ^B,,2 |
[V:1]c =A G |
[V:2]=A F E |
[V:3]=A, C C |
[V:4]C, C, C, |
[V:1]F z2 |]
[V:2]F z2 |]
[V:3]F, z2 |]
[V:4]F, z2 |]

